src/assets/img/createWalletSuccess/pin.svg

<svg fill="none" height="17" viewBox="0 0 13 17" width="13" xmlns="http://www.w3.org/2000/svg"><path clip-rule="evenodd" d="m9.66732 6.12504v-3.95833h.79168c.4354 0 .7917-.35625.7917-.79167 0-.435416-.3563-.791666-.7917-.791666h-7.91668c-.43542 0-.79167.35625-.79167.791666 0 .43542.35625.79167.79167.79167h.79166v3.95833c0 1.31417-1.06083 2.375-2.374996 2.375v1.58336h4.726246v5.5416l.79167.7917.79167-.7917v-5.5416h4.77373v-1.58336c-1.3141 0-2.37498-1.06083-2.37498-2.375z" fill="#fff" fill-rule="evenodd"/></svg>

<svg width="13" height="17" viewBox="0 0 13 17" fill="none" xmlns="http://www.w3.org/2000/svg">
<path fill-rule="evenodd" clip-rule="evenodd" d="M9.66732 6.12504V2.16671H10.459C10.8944 2.16671 11.2507 1.81046 11.2507 1.37504C11.2507 0.939624 10.8944 0.583374 10.459 0.583374H2.54232C2.1069 0.583374 1.75065 0.939624 1.75065 1.37504C1.75065 1.81046 2.1069 2.16671 2.54232 2.16671H3.33398V6.12504C3.33398 7.43921 2.27315 8.50004 0.958984 8.50004V10.0834H5.68523V15.625L6.4769 16.4167L7.26857 15.625V10.0834H12.0423V8.50004C10.7282 8.50004 9.66732 7.43921 9.66732 6.12504Z" fill="white"/>
</svg>
